X: 132
T:Woman of the House, The
M:C|
L:1/8
R:Reel
K:G
DBBA B2BA|GABd eBdB|A2BG A2Bd|eB~B2 eBdB|!
DBBA B2BA|GABd eBdB|~G3B A2GA|1BGAG EGGE:|2BGAG EGGe|!
|:f2fd edBd|edfd edBd|f2fd edBd|eaag abag|!
f2fd edBd|g2fd edBA|GABG A2GA|1BGAG EGGe:|2BGAG EGGE:|]!
